icons/circle/48/links.svg

<svg xmlns="http://www.w3.org/2000/svg" viewBox="0 0 48 48">
 <defs>
  <linearGradient id="linearGradient3764" y1="47" x2="0" y2="1" gradientUnits="userSpaceOnUse">
   <stop style="stop-color:#e4e4e4;stop-opacity:1"/>
   <stop offset="1" style="stop-color:#eee;stop-opacity:1"/>
  </linearGradient>
 </defs>
 <g>
  <path d="m 36.31 5 c 5.859 4.062 9.688 10.831 9.688 18.5 c 0 12.426 -10.07 22.5 -22.5 22.5 c -7.669 0 -14.438 -3.828 -18.5 -9.688 c 1.037 1.822 2.306 3.499 3.781 4.969 c 4.085 3.712 9.514 5.969 15.469 5.969 c 12.703 0 23 -10.298 23 -23 c 0 -5.954 -2.256 -11.384 -5.969 -15.469 c -1.469 -1.475 -3.147 -2.744 -4.969 -3.781 z m 4.969 3.781 c 3.854 4.113 6.219 9.637 6.219 15.719 c 0 12.703 -10.297 23 -23 23 c -6.081 0 -11.606 -2.364 -15.719 -6.219 c 4.16 4.144 9.883 6.719 16.219 6.719 c 12.703 0 23 -10.298 23 -23 c 0 -6.335 -2.575 -12.06 -6.719 -16.219 z" style="opacity:0.05"/>
  <path d="m 41.28 8.781 c 3.712 4.085 5.969 9.514 5.969 15.469 c 0 12.703 -10.297 23 -23 23 c -5.954 0 -11.384 -2.256 -15.469 -5.969 c 4.113 3.854 9.637 6.219 15.719 6.219 c 12.703 0 23 -10.298 23 -23 c 0 -6.081 -2.364 -11.606 -6.219 -15.719 z" style="opacity:0.1"/>
  <path d="m 31.25 2.375 c 8.615 3.154 14.75 11.417 14.75 21.13 c 0 12.426 -10.07 22.5 -22.5 22.5 c -9.708 0 -17.971 -6.135 -21.12 -14.75 a 23 23 0 0 0 44.875 -7 a 23 23 0 0 0 -16 -21.875 z" style="opacity:0.2"/>
 </g>
 <g>
  <path d="m 24 1 c -0.336 0 -0.669 0.011 -1 0.025 l -21.973 21.975 c -0.014 0.332 -0.025 0.665 -0.025 1 c 0 0.336 0.011 0.669 0.025 1 l 21.975 21.973 c 0.332 0.014 0.665 0.025 1 0.025 c 12.703 0 23 -10.297 23 -23 c 0 -0.335 -0.011 -0.668 -0.025 -1 l 0 -0.002 l -21.973 -21.973 c -0.333 -0.014 -0.666 -0.025 -1 -0.025 z" style="fill:url(#linearGradient3764);fill-opacity:1"/>
  <path d="M 24,1 C 11.297,1 1,11.297 1,24 l 15.01,0 -0.002,2 -14.912,0 C 2.11,37.766 11.976,47 24.004,47 L 24,37 l 9,0 0,-5 -9,0 0.004,-6 -1.274,0 0,-2 1.274,0 0,-23 z M 26,1.092 26,24 47,24 C 47,11.97 37.766,2.106 26,1.092 Z" style="fill:#000;fill-opacity:0.098"/>
  <path d="m 23 1.025 c -11.907 0.51 -21.465 10.07 -21.975 21.975 l 21.975 0 l 0 -21.975 z" style="fill:#ec8e68;fill-opacity:1"/>
  <path d="m 25 1.025 l 0 21.975 l 21.975 0 c -0.51 -11.907 -10.07 -21.465 -21.975 -21.975 z" style="fill:#9add9c;fill-opacity:1"/>
  <path d="m 1.025 25 c 0.51 11.907 10.07 21.465 21.975 21.975 l 0 -21.975 l -21.975 0 z" style="fill:#9ab9dd;fill-opacity:1"/>
 </g>
 <g>
  <g>
   <g transform="translate(1,1)">
    <g style="opacity:0.1">
     <!-- color: #eeeeee -->
    </g>
   </g>
  </g>
 </g>
 <g>
  <g>
   <!-- color: #eeeeee -->
   <g>
    <path d="m 17 13 0 10 5 0 0 -10 z m 0 12 0 12 6 0 0 -5 -1 0 0 -7" style="fill:#000;fill-opacity:0.098;stroke:none;fill-rule:nonzero"/>
   </g>
  </g>
 </g>
 <g>
  <path d="m 40.03 7.531 c 3.712 4.084 5.969 9.514 5.969 15.469 0 12.703 -10.297 23 -23 23 c -5.954 0 -11.384 -2.256 -15.469 -5.969 4.178 4.291 10.01 6.969 16.469 6.969 c 12.703 0 23 -10.298 23 -23 0 -6.462 -2.677 -12.291 -6.969 -16.469 z" style="opacity:0.1"/>
 </g>
 <path d="m 16 12 5 0 0 19 11 0 0 5 -16 0" style="fill:#2d2d2d;fill-opacity:1;stroke:none;fill-rule:nonzero"/>
</svg>

<svg xmlns="http://www.w3.org/2000/svg" viewBox="0 0 48 48">
  <defs>
    <linearGradient id="a" y1="47" x2="0" y2="1" gradientUnits="userSpaceOnUse">
      <stop stop-color="#e4e4e4"/>
      <stop offset="1" stop-color="#eee"/>
    </linearGradient>
  </defs>
  <path d="M36.31 5c5.859 4.062 9.688 10.831 9.688 18.5 0 12.426-10.07 22.5-22.5 22.5-7.669 0-14.438-3.828-18.5-9.688a23.24 23.24 0 0 0 3.781 4.969 22.923 22.923 0 0 0 15.469 5.969c12.703 0 23-10.298 23-23a22.92 22.92 0 0 0-5.969-15.469A23.216 23.216 0 0 0 36.31 5zm4.969 3.781A22.911 22.911 0 0 1 47.498 24.5c0 12.703-10.297 23-23 23a22.909 22.909 0 0 1-15.719-6.219C12.939 45.425 18.662 48 24.998 48c12.703 0 23-10.298 23-23 0-6.335-2.575-12.06-6.719-16.219z" opacity=".05"/>
  <path d="M41.28 8.781a22.923 22.923 0 0 1 5.969 15.469c0 12.703-10.297 23-23 23A22.92 22.92 0 0 1 8.78 41.281 22.911 22.911 0 0 0 24.499 47.5c12.703 0 23-10.298 23-23A22.909 22.909 0 0 0 41.28 8.781z" opacity=".1"/>
  <path d="M31.25 2.375C39.865 5.529 46 13.792 46 23.505c0 12.426-10.07 22.5-22.5 22.5-9.708 0-17.971-6.135-21.12-14.75a23 23 0 0 0 44.875-7 23 23 0 0 0-16-21.875z" opacity=".2"/>
  <path d="M24 1c-.336 0-.669.011-1 .025L1.027 23c-.014.332-.025.665-.025 1 0 .336.011.669.025 1l21.975 21.973c.332.014.665.025 1 .025 12.703 0 23-10.297 23-23 0-.335-.011-.668-.025-1v-.002L25.004 1.023a23.792 23.792 0 0 0-1-.025z" fill="url(#a)"/>
  <path d="M24 1C11.297 1 1 11.297 1 24h15.01l-.002 2H1.096c1.014 11.766 10.88 21 22.908 21L24 37h9v-5h-9l.004-6H22.73v-2h1.274V1zm2 .092V24h21c0-12.03-9.234-21.894-21-22.908z" fill-opacity=".098"/>
  <path d="M23 1.025C11.093 1.535 1.535 11.095 1.025 23H23V1.025z" fill="#ec8e68"/>
  <path d="M25 1.025V23h21.975C46.465 11.093 36.905 1.535 25 1.025z" fill="#9add9c"/>
  <path d="M1.025 25C1.535 36.907 11.095 46.465 23 46.975V25H1.025z" fill="#9ab9dd"/>
  <g>
    <path d="M17 13v10h5V13zm0 12v12h6v-5h-1v-7" fill-opacity=".098"/>
  </g>
  <g>
    <path d="M40.03 7.531A22.922 22.922 0 0 1 45.999 23c0 12.703-10.297 23-23 23A22.92 22.92 0 0 1 7.53 40.031C11.708 44.322 17.54 47 23.999 47c12.703 0 23-10.298 23-23 0-6.462-2.677-12.291-6.969-16.469z" opacity=".1"/>
  </g>
  <path d="M16 12h5v19h11v5H16" fill="#2d2d2d"/>
</svg>
